X: 34566
T: Ripple Of The Teign
R: jig
M: 6/8
K: Dmajor
|:f|aba fgf|ded ABA|ABc def|g2 f e3|
gag efe|cec ABA|ABc def|b2 a f3|
aba fgf|ded ABA|ABc def|g2 f e3|
gag efe|cec Ace|c'ba gfe|d3- d2:|
K: GMaj
|:B|d^cd BAB|GFG DED|DEF GAB|c2 B A3|
cdc ABA|FGF DED|DEF GAB|e2 d B3|
d^cd BAB|GFG DED|DEF GAB|c2 B A3|
cdc ABA|FGF DFA|fed cBA|G3- G2:|

